src/lib/packages/icons/src/assets/filled/referee-card.svg

<svg width="24" height="24" viewBox="0 0 24 24" fill="none" xmlns="http://www.w3.org/2000/svg">
<path d="M20.74 20.89C20.8 21.3 20.51 21.68 20.1 21.74C20.06 21.74 20.03 21.74 19.99 21.74C19.62 21.74 19.3 21.47 19.25 21.1L18.49 15.75C18.36 14.85 17.93 13.99 17.29 13.35L13.58 9.64001C13.26 9.32001 12.74 9.32001 12.41 9.64001C12.14 9.91001 12.09 10.33 12.29 10.66L16.63 17.6C16.85 17.95 16.74 18.41 16.39 18.63C16.04 18.85 15.58 18.74 15.36 18.39L14.74 17.41C14.41 17.61 13.97 17.75 13.35 17.75H8.31C9.16 19.11 9.71 19.67 10.52 20.47C10.81 20.76 10.81 21.24 10.52 21.53C10.37 21.68 10.18 21.75 9.99001 21.75C9.80001 21.75 9.61001 21.68 9.46001 21.53C8.51001 20.58 7.8 19.86 6.56 17.74C5.05 17.71 4.24001 16.89 4.24001 15.36V4.64001C4.24001 3.08001 5.07 2.25 6.63 2.25H13.35C14.91 2.25 15.74 3.08001 15.74 4.64001V9.69L18.34 12.29C19.21 13.16 19.79 14.32 19.97 15.54L20.73 20.89H20.74Z" fill="currentColor"/>
</svg>

<svg xmlns="http://www.w3.org/2000/svg" width="24" height="24" fill="none"><path fill="currentColor" d="M20.74 20.89c.06.41-.23.79-.64.85h-.11c-.37 0-.69-.27-.74-.64l-.76-5.35a4.3 4.3 0 0 0-1.2-2.4l-3.71-3.71a.833.833 0 0 0-1.17 0 .83.83 0 0 0-.12 1.02l4.34 6.94a.747.747 0 1 1-1.27.79l-.62-.98c-.33.2-.77.34-1.39.34H8.31c.85 1.36 1.4 1.92 2.21 2.72.29.29.29.77 0 1.06-.15.15-.34.22-.53.22s-.38-.07-.53-.22c-.95-.95-1.66-1.67-2.9-3.79-1.51-.03-2.32-.85-2.32-2.38V4.64c0-1.56.83-2.39 2.39-2.39h6.72c1.56 0 2.39.83 2.39 2.39v5.05l2.6 2.6a5.84 5.84 0 0 1 1.63 3.25l.76 5.35h.01Z"/></svg>
